X:17
T:Christ est ressuscit
M:C
L:1/8
K:G
G2GGA2A2|B3Gc2c2|B3B AGA2|[M:2/4]B4|[M:C]G2GGA2A2|B3Gc2c2|B3B AGA2|G6-||
G D|GGGG GFFF|E4-E3E|AAAA AGGG|F4-F3F|BBBBB2BB|EEFGA4|
D2D2B,2B,2|G2GGE2E2|D2D2B,2B,2|G2GGE2E2|G4E3G|A8|]
